X:024
T:Charlie Hunter
C:Bobby MacLeod
S:Bobby MacLeod's Selection of Country Dance Tunes
M:6/8
L:1/8
K:D
A|DFA GBd|Adf a2g|fed Bcd|ecA GFE|
DFA GBd|Adf a2g|fef gec|1edd d2:|2edd d|]
fg|afd d2c|BGG G2F|E^GB e2d|cAA Aag|
fdA FDF|GBd g2g|fef gec|1edd d:|2edd d2|]
<end>
<start>
